X: 18532
T: I Have A Bonnet Trimmed With Blue
R: polka
M: 2/4
K: Cmajor
|:G2 Bd|f2 ef|.g.c .B.d|ce/c/ Az|
G2 Bd|f2 ef|.g.c .B.d|c2 z2:|
|:A2 cf|aa g^f|ga g^f|g2 ez|
G2 Bd|f2 ef|.g.c .B.d|c2 z2:|

